X: 214
T: Song of the Moccasin Game (d)
C: Teton Sioux band 1911-1914
N: Derived from sioux209.krn
O: South Dakota, U.S.A.
N: Teton Sioux Music by Frances Densmore, 1918
Z: transcribed to **kern format by Craig Sapp
L: 1/8
M: 2/4
Q: 1/4=58
K: Bb clef=bass
%%linebreak <none>
G3/ G/ [I:setbarnb 1]]|:  
G2G D | 
G2G3/ D/ | 
D2C B, | 
C2C3/ D/ | 
B,2B, G, | 
B,2(3B, B, B, | 
G,2G,/ G,3/ | 
G,2(3G, G, D | 
D2C B, | 
C2C3/ D/ | 
B,2B, G, | 
B,2(3B, B, B, | 
G,2G,/ G,3/ |[1 
G,2(3G, G, G :|][2 
G,2z2 |]  



